X:1
T:Santa Cruz, 12.8.12.8
T:Santa Cruz, 12.8.12.8
T:Ella Bute Bishop, 1891
T:Public Domain Courtesy of the Cyber Hymnal™
C:Ella Bute Bishop, 1891
Z:Public Domain
Z:Courtesy of the Cyber Hymnal™
%%score ( 1 2 ) ( 3 4 )
L:1/8
Q:1/4=107
M:3/4
K:Eb
V:1 treble 
V:2 treble 
V:3 bass 
V:4 bass 
V:1
 EE | [EB]4 [EB][EB] | [EG]4 EE | [Ee]4 [Ac][Ae] | [GB]4 (EG) | [EB]4 [EB][EB] | [EB]4 [DF][DF] | %7
 [EG]4 E[EG] | [GB]4 [GB][GB] | [EG]4 EE | [Ee]4 [Ac][Ae] | [GB]4 (EG) | [EB]4 [EB][EB] | %13
 [DB]4 [DA][DF] | E4 |] %15
V:2
 EE | x6 | x4 EE | x6 | x4 E2 | x6 | x6 | x4 E x | x6 | x4 EE | x6 | x4 E2 | x6 | x6 | E4 |] %15
V:3
 E,E, | [E,G,]4 [E,G,][E,G,] | [E,B,]4 [E,G,][E,G,] | [A,,C]4 [A,,E][A,,C] | [E,E]4 [E,G,]2 | %5
 [E,G,]4 [E,G,][E,G,] | [E,G,]4 [B,,B,][B,,B,] | [E,B,]4 [E,G,][E,B,] | [E,E]4 [E,E][E,E] | %9
 [E,B,]4 [E,G,][E,G,] | [A,,C]4 [A,,E][A,,C] | [E,E]4 [E,G,]2 | [E,G,]4 [E,G,][E,G,] | %13
 [B,,B,]4 [B,,A,][B,,B,] | [E,G,]4 |] %15
V:4
 E,E, | x6 | x6 | x6 | x6 | x6 | x6 | x6 | x6 | x6 | x6 | x6 | x6 | x6 | x4 |] %15

